dist/assets/img/questions/5/backdrop_1200.svg

<svg width="672" height="294" viewBox="0 0 672 294" fill="none" xmlns="http://www.w3.org/2000/svg">
<g filter="url(#filter0_di_1419_48916)">
<path fill-rule="evenodd" clip-rule="evenodd" d="M580.079 93.496C540.381 46.426 419.604 27.9373 310.882 28.0002C202.354 28.0629 57.2875 64.6997 42.2176 121.052C29.6523 168.038 72.0866 192.913 129.001 219.17C194.245 249.27 352.877 251.326 461.415 214.991C511.896 198.091 561.969 176.421 582.852 149.867C585.885 146.01 590.674 143.794 595.557 144.271C606.555 145.345 619.153 144.532 631.094 139.294C631.244 139.228 631.219 139.008 631.058 138.978C622.576 137.376 613.37 135.638 604.859 132.312C597.044 129.258 593.776 120.716 591.254 112.714C589.298 106.508 585.651 100.103 580.079 93.496Z" fill="white"/>
</g>
<defs>
<filter id="filter0_di_1419_48916" x="0" y="0" width="671.194" height="294" filterUnits="userSpaceOnUse" color-interpolation-filters="sRGB">
<feFlood flood-opacity="0" result="BackgroundImageFix"/>
<feColorMatrix in="SourceAlpha" type="matrix" values="0 0 0 0 0 0 0 0 0 0 0 0 0 0 0 0 0 0 127 0" result="hardAlpha"/>
<feOffset dy="12"/>
<feGaussianBlur stdDeviation="20"/>
<feComposite in2="hardAlpha" operator="out"/>
<feColorMatrix type="matrix" values="0 0 0 0 0.909804 0 0 0 0 0.313726 0 0 0 0 0.470588 0 0 0 1 0"/>
<feBlend mode="normal" in2="BackgroundImageFix" result="effect1_dropShadow_1419_48916"/>
<feBlend mode="normal" in="SourceGraphic" in2="effect1_dropShadow_1419_48916" result="shape"/>
<feColorMatrix in="SourceAlpha" type="matrix" values="0 0 0 0 0 0 0 0 0 0 0 0 0 0 0 0 0 0 127 0" result="hardAlpha"/>
<feOffset dy="-4"/>
<feGaussianBlur stdDeviation="4"/>
<feComposite in2="hardAlpha" operator="arithmetic" k2="-1" k3="1"/>
<feColorMatrix type="matrix" values="0 0 0 0 0.909804 0 0 0 0 0.313726 0 0 0 0 0.470588 0 0 0 0.48 0"/>
<feBlend mode="normal" in2="shape" result="effect2_innerShadow_1419_48916"/>
</filter>
</defs>
</svg>

<svg width="672" height="294" viewBox="0 0 672 294" fill="none" xmlns="http://www.w3.org/2000/svg"><g filter="url(#filter0_di_1419_48916)"><path fill-rule="evenodd" clip-rule="evenodd" d="M580.079 93.496C540.381 46.426 419.604 27.937 310.882 28c-108.528.063-253.595 36.7-268.664 93.052C29.652 168.038 72.087 192.913 129 219.17c65.244 30.1 223.876 32.156 332.414-4.179 50.481-16.9 100.554-38.57 121.437-65.124 3.033-3.857 7.822-6.073 12.705-5.596 10.998 1.074 23.596.261 35.537-4.977.15-.066.125-.286-.036-.316-8.482-1.602-17.688-3.34-26.199-6.666-7.815-3.054-11.083-11.596-13.605-19.598-1.956-6.206-5.603-12.611-11.175-19.218z" fill="#fff"/></g><defs><filter id="filter0_di_1419_48916" x="0" y="0" width="671.194" height="294" filterUnits="userSpaceOnUse" color-interpolation-filters="sRGB"><feFlood flood-opacity="0" result="BackgroundImageFix"/><feColorMatrix in="SourceAlpha" values="0 0 0 0 0 0 0 0 0 0 0 0 0 0 0 0 0 0 127 0" result="hardAlpha"/><feOffset dy="12"/><feGaussianBlur stdDeviation="20"/><feComposite in2="hardAlpha" operator="out"/><feColorMatrix values="0 0 0 0 0.909804 0 0 0 0 0.313726 0 0 0 0 0.470588 0 0 0 1 0"/><feBlend in2="BackgroundImageFix" result="effect1_dropShadow_1419_48916"/><feBlend in="SourceGraphic" in2="effect1_dropShadow_1419_48916" result="shape"/><feColorMatrix in="SourceAlpha" values="0 0 0 0 0 0 0 0 0 0 0 0 0 0 0 0 0 0 127 0" result="hardAlpha"/><feOffset dy="-4"/><feGaussianBlur stdDeviation="4"/><feComposite in2="hardAlpha" operator="arithmetic" k2="-1" k3="1"/><feColorMatrix values="0 0 0 0 0.909804 0 0 0 0 0.313726 0 0 0 0 0.470588 0 0 0 0.48 0"/><feBlend in2="shape" result="effect2_innerShadow_1419_48916"/></filter></defs></svg>
